X: 100282
T: MISS SAMUEL'S FANCY JIG -- Contre Dance
R: 6/8
B: K\"ohler's Violin Repository, v.3, 1885 p.206 #3
F: http://www.archive.org/details/klersviolinrepos03rugg
Z: 2012 John Chambers <jc:trillian.mit.edu>
N: There's only one segno, at the very end.
M: 6/8
L: 1/8
K: A
uE |\
c3 cdB | e3 cag | gfe e^d=d | cdc (.B2.E) |\
c3 cdB | e3 cag | gfd cdB | A3- A2 :|
uc |\
(B2E) Bcd | cAA (.A2.c) | (B2E) Bcd | cAA A2c/d/ |\
e3 cag | gfe e^d=d | cde fdB | "_D.C. for Finale."A3 G2 !segno!|]

%%sep 2 1 500

